X: 1
T: John MacColl's Farewell
M: 4/4
L: 1/8
R: strathspey
K: Bmin
f<b|f4 B>cd>e|f2B2 B2B>d|e4 d>fe>d|c2A2 A2f<b|
f4 B2B>c|B>AB<c f2e>c|A>AA>B c>ef<e|c2B2 B2:|
B>c|d>fe<f B>BB>c|d>fe<f B>BB2|d<eB>c A>AA>B|c>eB>c A>AA>c|
d>fe<f B2B>c|B>AB<c f2e>c|A>AA>B c>ef<e|c2B2 B2B>c|
d>fe<f B>BB>c|d>fe<f B>BB2|d<eB>c A>AA>B|c>eB>c A>AA>c|
d>fe<f c>ec2|B>cd<e f2e>c|A>AA>B c>ef<e|c2B2 B2||
